X: 1
T: Fenella
C: Paul Cranford
R: march, shottish, strathspey
Z: 2014 John Chambers <jc:trillian.mit.edu>
S: printed copy of unknown origin
S: Page from Boston Slow Scottish Session collection
N: Chords by Duncan Smith
M: C
L: 1/8
K: D
D>E |\
"D"F2 F>E D>E F<A | "(G)"d2 d>c "G"B4 |\
"D"A>B A<F "Bm"G>F E<D | "E(m)"F2 E2 "A7"E2 D>E |\
"D"F2 F>E D>E F<A |
"(G)"d2 d>c "G"B4 |\
[1 "D"A>B A<F "Em"G>F E<D | "A7"A,2 D2 "D"D2 :|\
[2 "D"A>B A<F "G"G>A B<g | "A7"f2 d2 "D"d2 :|\
f>g | "D"a3 f b<a a>f |
"G"g>e f<g "D"f2 f>g |\
"D"a>f g<a "Bm"b>a g<f | "Em"f2 e2 "A7"e2 f>g |\
"D"a3 f b<a a>f | "G"g>e f<g "D"f2 (3efg |
"Em"f>e d>B "A7"A>F E<G | "(D)"F2 D2 "D"D2 "(A7)"f>g |\
"D"a3 f b>a a<f | "G"g>e f<g "D"f2 f>g |\
"D"a>f g<a "Bm"b>a g<f |
"Em"e>d c<B "A7"A>G F<E |\
"D"F2 F>E D>E F<A | "(G)"d2 d>c "G"B4 |\
"D"A>B A<F "G"G>A B<g | "A7"f2 d2 "D"d2 |]
